X:129
%%musicspace -13
%%titlespace -25
T:The Blarney Pilgrim
M:6/8
L:1/8
K:G
"G"DED DEG | "D"A2D ABc | "G"BAG "C"AGE | "C"GEA "Am"GED | "G"DED DEG | "D"A2D ABc | 
"G"BAG "C"AGE | GED "D"D3 :|]|: "G"d2d dBG | "D"AGA "C"BGE | "G"d2d dBG | "D"ABA "G"GBd | 
"C"g2e "G"dBG | "D"AGA "G"BGD | "G"B2G "C"AGE | "D"DED D3 :|]|: "D"A3 "G"B3 | "D"A3 ABc | 
"G"BAG "C"AGE | "C"GEA "Am"GED | "D"A3 "G"B3 | "D"A3 ABc | "G"BAG "C"AGE | GED "D"D3 :|

%%newpage
%%scale 0.8

